nds/_inc/system.svg

<svg xmlns="http://www.w3.org/2000/svg"><g fill="#fff"><path d="m381.537 77.19c0 .912-.747 1.731-1.668 1.731h-31.914c-.93 0-1.677-.819-1.677-1.731v-23.058c0-.909.747-1.638 1.677-1.638h31.914c.921 0 1.668.729 1.668 1.638zm-1.386-31.623h-32.487c-4.704 0-8.541 3.828-8.541 8.565v23.148c0 4.65 3.837 8.568 8.541 8.568h32.487c4.713 0 8.541-3.918 8.541-8.568v-23.148c0-4.737-3.828-8.565-8.541-8.565"/><path d="m7.455 10.935v29.802c-.393 0-7.053 0-7.455 0 0-.456 0-39.825 0-40.281h6.369l30.195 29.346s0-28.89 0-29.346h5.967 1.386v40.281c-.402 0-5.622 0-5.823 0z"/><path d="m82.194 10.935v29.802c-.402 0-7.047 0-7.455 0 0-.456 0-39.825 0-40.281h6.36l30.192 29.346s0-28.89 0-29.346h5.979 1.386v40.281c-.411 0-5.625 0-5.823 0z"/><path d="m237.09 10.935v29.802c-.408 0-7.044 0-7.452 0 0-.456 0-39.825 0-40.281h6.36l30.192 29.346s0-28.89 0-29.346h5.979 1.386v40.281c-.411 0-5.625 0-5.817 0z"/><path d="m61.671.456h1.374v40.281c-.39 0-7.053 0-7.455 0 0-.456 0-39.825 0-40.281z"/><path d="m169.425.456h1.368v6.927c-.438 0-17.973 0-17.973 0v33.354c-.399 0-7.344 0-7.746 0 0-.456 0-33.354 0-33.354s-17.532 0-17.97 0c0-.366 0-6.561 0-6.927z"/><path d="m217.179.456h1.395v6.927c-.429 0-31.953 0-31.953 0v9.021h24.717v6.927c-.42 0-24.717 0-24.717 0v10.479h31.953v6.927c-.429 0-38.904 0-39.333 0 0-.456 0-39.825 0-40.281z"/><path d="m315 33.81h-22.893v-26.427h22.893c7.164 0 9.708 7.107 9.708 13.212 0 6.015-2.544 13.215-9.708 13.215zm12.231-27.429c-2.916-3.921-7.227-5.925-12.441-5.925 0 0-29.436 0-29.871 0v40.281h29.871c5.214 0 9.525-2.097 12.441-5.925 2.733-3.552 4.182-8.475 4.182-14.217 0-5.739-1.449-10.662-4.182-14.214"/><path d="m381.537 32.169c0 .822-.747 1.641-1.668 1.641h-31.914c-.93 0-1.677-.819-1.677-1.641v-23.148c0-.909.747-1.638 1.677-1.638h31.914c.921 0 1.668.729 1.668 1.638zm-1.386-31.713h-32.487c-4.704 0-8.541 3.828-8.541 8.565v23.148c0 4.74 3.837 8.568 8.541 8.568h32.487c4.713 0 8.541-3.828 8.541-8.568v-23.148c0-4.737-3.828-8.565-8.541-8.565"/><path d="m515.484 68.805c7.728 3.099 24.051 5.559 36.792 5.559 13.941 0 19.71-4.737 19.71-10.752 0-5.469-5.358-8.568-20.751-14.217-20.586-7.566-35.688-13.578-35.688-27.159 0-13.944 18.174-22.236 45.867-22.236 14.874 0 19.977.912 29.418 2.643l.075 13.305c-9.279-1.731-17.499-4.737-30.267-4.737-13.686 0-19.521 4.374-19.521 8.838 0 6.471 8.988 9.57 24.744 15.219 21.936 7.839 34.137 13.854 34.137 27.066 0 13.671-15.282 23.514-49.749 23.514-14.151 0-23.913-.912-34.767-2.733z"/><path d="m442.122 11.757h-16.404v62.151h16.404c25.179 0 41.064-10.845 41.064-30.984s-15.885-31.167-41.064-31.167zm44.028 67.893c-8.112 3.645-23.46 6.015-36.873 6.015h-51.273v-85.482h51.273c13.413 0 28.761 2.37 36.891 6.015 19.746 8.931 26.181 23.238 26.181 36.726s-6.378 27.795-26.199 36.726"/></g></svg>

<?xml version="1.0" encoding="utf-8"?>
<svg version="1.0" xmlns="http://www.w3.org/2000/svg">
  <g>
    <path d="M 381.537 77.19 C 381.537 78.102 380.79 78.921 379.869 78.921 L 347.955 78.921 C 347.025 78.921 346.278 78.102 346.278 77.19 L 346.278 54.132 C 346.278 53.223 347.025 52.494 347.955 52.494 L 379.869 52.494 C 380.79 52.494 381.537 53.223 381.537 54.132 L 381.537 77.19 Z M 380.151 45.567 L 347.664 45.567 C 342.96 45.567 339.123 49.395 339.123 54.132 L 339.123 77.28 C 339.123 81.93 342.96 85.848 347.664 85.848 L 380.151 85.848 C 384.864 85.848 388.692 81.93 388.692 77.28 L 388.692 54.132 C 388.692 49.395 384.864 45.567 380.151 45.567" style="fill-rule: nonzero; stroke: none; fill: rgb(255, 255, 255);" id="path100608"/>
    <path d="M 7.455 10.935 C 7.455 10.935 7.455 40.281 7.455 40.737 C 7.062 40.737 0.402 40.737 0 40.737 C 0 40.281 0 0.912 0 0.456 C 0.42 0.456 6.18 0.456 6.369 0.456 L 36.564 29.802 C 36.564 29.802 36.564 0.912 36.564 0.456 C 36.972 0.456 42.531 0.456 42.531 0.456 C 42.531 0.456 43.59 0.456 43.917 0.456 C 43.917 0.912 43.917 40.281 43.917 40.737 C 43.515 40.737 38.295 40.737 38.094 40.737 L 7.455 10.935" style="fill-rule: nonzero; stroke: none; fill: rgb(255, 255, 255);" id="path100618"/>
    <path d="M 82.194 10.935 C 82.194 10.935 82.194 40.281 82.194 40.737 C 81.792 40.737 75.147 40.737 74.739 40.737 C 74.739 40.281 74.739 0.912 74.739 0.456 C 75.156 0.456 80.907 0.456 81.099 0.456 L 111.291 29.802 C 111.291 29.802 111.291 0.912 111.291 0.456 C 111.702 0.456 117.27 0.456 117.27 0.456 C 117.27 0.456 118.335 0.456 118.656 0.456 C 118.656 0.912 118.656 40.281 118.656 40.737 C 118.245 40.737 113.031 40.737 112.833 40.737 L 82.194 10.935" style="fill-rule: nonzero; stroke: none; stroke-width: 0.05; stroke-linecap: butt; stroke-linejoin: miter; stroke-miterlimit: 4; stroke-dasharray: none; fill: rgb(255, 255, 255);" id="path100622"/>
    <path d="M 237.09 10.935 C 237.09 10.935 237.09 40.281 237.09 40.737 C 236.682 40.737 230.046 40.737 229.638 40.737 C 229.638 40.281 229.638 0.912 229.638 0.456 C 230.055 0.456 235.815 0.456 235.998 0.456 L 266.19 29.802 C 266.19 29.802 266.19 0.912 266.19 0.456 C 266.601 0.456 272.169 0.456 272.169 0.456 C 272.169 0.456 273.234 0.456 273.555 0.456 C 273.555 0.912 273.555 40.281 273.555 40.737 C 273.144 40.737 267.93 40.737 267.738 40.737 L 237.09 10.935" style="fill-rule: nonzero; stroke: none; stroke-width: 0.05; stroke-linecap: butt; stroke-linejoin: miter; stroke-miterlimit: 4; stroke-dasharray: none; fill: rgb(255, 255, 255);" id="path100626"/>
    <path d="M 61.671 0.456 C 61.671 0.456 62.727 0.456 63.045 0.456 C 63.045 0.912 63.045 40.281 63.045 40.737 C 62.655 40.737 55.992 40.737 55.59 40.737 C 55.59 40.281 55.59 0.912 55.59 0.456 C 56.001 0.456 61.671 0.456 61.671 0.456" style="fill-rule: nonzero; stroke: none; stroke-width: 0.05; stroke-linecap: butt; stroke-linejoin: miter; stroke-miterlimit: 4; stroke-dasharray: none; fill: rgb(255, 255, 255);" id="path100630"/>
    <path d="M 169.425 0.456 C 169.425 0.456 170.463 0.456 170.793 0.456 C 170.793 0.822 170.793 7.017 170.793 7.383 C 170.355 7.383 152.82 7.383 152.82 7.383 C 152.82 7.383 152.82 40.281 152.82 40.737 C 152.421 40.737 145.476 40.737 145.074 40.737 C 145.074 40.281 145.074 7.383 145.074 7.383 C 145.074 7.383 127.542 7.383 127.104 7.383 C 127.104 7.017 127.104 0.822 127.104 0.456 C 127.551 0.456 169.425 0.456 169.425 0.456" style="fill-rule: nonzero; stroke: none; stroke-width: 0.05; stroke-linecap: butt; stroke-linejoin: miter; stroke-miterlimit: 4; stroke-dasharray: none; fill: rgb(255, 255, 255);" id="path100634"/>
    <path d="M 217.179 0.456 C 217.179 0.456 218.253 0.456 218.574 0.456 C 218.574 0.822 218.574 7.017 218.574 7.383 C 218.145 7.383 186.621 7.383 186.621 7.383 L 186.621 16.404 C 186.621 16.404 210.918 16.404 211.338 16.404 C 211.338 16.86 211.338 22.875 211.338 23.331 C 210.918 23.331 186.621 23.331 186.621 23.331 L 186.621 33.81 C 186.621 33.81 218.145 33.81 218.574 33.81 C 218.574 34.176 218.574 40.281 218.574 40.737 C 218.145 40.737 179.67 40.737 179.241 40.737 C 179.241 40.281 179.241 0.912 179.241 0.456 C 179.67 0.456 217.179 0.456 217.179 0.456" style="fill-rule: nonzero; stroke: none; stroke-width: 0.05; stroke-linecap: butt; stroke-linejoin: miter; stroke-miterlimit: 4; stroke-dasharray: none; fill: rgb(255, 255, 255);" id="path100638"/>
    <path d="M 315 33.81 L 292.107 33.81 L 292.107 7.383 L 315 7.383 C 322.164 7.383 324.708 14.49 324.708 20.595 C 324.708 26.61 322.164 33.81 315 33.81 Z M 327.231 6.381 C 324.315 2.46 320.004 0.456 314.79 0.456 C 314.79 0.456 285.354 0.456 284.919 0.456 C 284.919 0.912 284.919 40.281 284.919 40.737 C 285.354 40.737 314.79 40.737 314.79 40.737 C 320.004 40.737 324.315 38.64 327.231 34.812 C 329.964 31.26 331.413 26.337 331.413 20.595 C 331.413 14.856 329.964 9.933 327.231 6.381" style="fill-rule: nonzero; stroke: none; stroke-width: 0.05; stroke-linecap: butt; stroke-linejoin: miter; stroke-miterlimit: 4; stroke-dasharray: none; fill: rgb(255, 255, 255);" id="path100642"/>
    <path d="M 381.537 32.169 C 381.537 32.991 380.79 33.81 379.869 33.81 L 347.955 33.81 C 347.025 33.81 346.278 32.991 346.278 32.169 L 346.278 9.021 C 346.278 8.112 347.025 7.383 347.955 7.383 L 379.869 7.383 C 380.79 7.383 381.537 8.112 381.537 9.021 L 381.537 32.169 Z M 380.151 0.456 L 347.664 0.456 C 342.96 0.456 339.123 4.284 339.123 9.021 L 339.123 32.169 C 339.123 36.909 342.96 40.737 347.664 40.737 L 380.151 40.737 C 384.864 40.737 388.692 36.909 388.692 32.169 L 388.692 9.021 C 388.692 4.284 384.864 0.456 380.151 0.456" style="fill-rule: nonzero; stroke: none; stroke-width: 0.05; stroke-linecap: butt; stroke-linejoin: miter; stroke-miterlimit: 4; stroke-dasharray: none; fill: rgb(255, 255, 255);" id="path100646"/>
    <path d="M 515.484 68.805 C 523.212 71.904 539.535 74.364 552.276 74.364 C 566.217 74.364 571.986 69.627 571.986 63.612 C 571.986 58.143 566.628 55.044 551.235 49.395 C 530.649 41.829 515.547 35.817 515.547 22.236 C 515.547 8.292 533.721 0 561.414 0 C 576.288 0 581.391 0.912 590.832 2.643 L 590.907 15.948 C 581.628 14.217 573.408 11.211 560.64 11.211 C 546.954 11.211 541.119 15.585 541.119 20.049 C 541.119 26.52 550.107 29.619 565.863 35.268 C 587.799 43.107 600 49.122 600 62.334 C 600 76.005 584.718 85.848 550.251 85.848 C 536.1 85.848 526.338 84.936 515.484 83.115 L 515.484 68.805" style="fill-rule: nonzero; stroke: none; stroke-width: 0.05; stroke-linecap: butt; stroke-linejoin: miter; stroke-miterlimit: 4; stroke-dasharray: none; fill: rgb(255, 255, 255);" id="path100656"/>
    <path d="M 442.122 11.757 L 425.718 11.757 L 425.718 73.908 L 442.122 73.908 C 467.301 73.908 483.186 63.063 483.186 42.924 C 483.186 22.785 467.301 11.757 442.122 11.757 Z M 486.15 79.65 C 478.038 83.295 462.69 85.665 449.277 85.665 L 398.004 85.665 L 398.004 0.183 L 449.277 0.183 C 462.69 0.183 478.038 2.553 486.168 6.198 C 505.914 15.129 512.349 29.436 512.349 42.924 C 512.349 56.412 505.971 70.719 486.15 79.65" style="fill-rule: nonzero; stroke: none; stroke-width: 0.05; stroke-linecap: butt; stroke-linejoin: miter; stroke-miterlimit: 4; stroke-dasharray: none; fill: rgb(255, 255, 255);" id="path100660"/>
  </g>
</svg>
